!!!OTL: Introitus de Nativitate Domini
**kern
*staff1
=--
*clefC1
*k[b-]
00r
=-
1b-
2cc
2cc
1dd
1dd
=-
2cc
2b-
1a
1g
1b-
=-
1cc
1.dd
2b-
2cc
1b-
=-
!!linebreak:original
1.dd
2cc
2b-
2cc
1a
=-
!LO:TX:Y=-44:t=P
!LO:TX:Y=118:t=P
1g
1b-
2cc
2cc
1dd
=-
!LO:TX:Y=-45:t=P
1cc
1b-
2a
2a
1b-
=-
!LO:TX:Y=-45:t=P
1cc
1.dd
2dd
2ee-
2dd
!!linebreak:original
=-
!LO:TX:Y=-41:t=P
1cc
1b-
1.dd
2cc
=-
!LO:TX:Y=-45:t=P
2b-
2g
1a
1g
1.b-
2b-
1cc
=-
1b-
1.cc
2cc
0dd
=-
!LO:TX:Y=115:t=P
0cc
1dd
0cc
=-
!!linebreak:original
q20.000000r
=-
!LO:TX:Y=-45:t=P
1cc
2dd
2cc
2b-
2a
2g
2a
=-
!LO:TX:Y=-43:t=P
!LO:TX:Y=-43:t=P
!LO:TX:Y=116:t=P
1a
2b-
2cc
2dd
2cc
1b-
1cc
=-
!LO:TX:Y=-45:t=P
!LO:TX:Y=118:t=P
1dd
1b-
0cc
0a
!!linebreak:original
=-
*k[]
*met(c|)
*M2/2
1a
2a
2a
1b
1a
=-
!LO:TX:Y=-44:t=P
1ee
2dd
2cc
1.b
2b
=-
!LO:TX:Y=-43:t=P
1cc
2dd
2cc
1b
1a
=-
!LO:TX:Y=-42:t=P
!LO:TX:Y=-42:t=P
1g
1a
2b
2dd
2dd
2dd
=-
!!pagebreak:original
1ee
1.dd
2dd
2dd
2cc
=-
1b
1cc
1a
2a
2g
=-
1.a
2a
1f
2e
2g
=-
2f
1g
2f
0g
0g
=-
!!linebreak:original
1dd
2dd
2dd
1ee
=-
!LO:TX:Y=-43:t=P
1dd
2cc
2a
2b
2b
=-
!LO:TX:Y=-43:t=P
!LO:TX:Y=-44:t=P
1ee
1.dd
2cc
=-
2b
2b
1cc
2cc
2g
=-
1.a
2a
1g
=-
2cc
2b
1a
0b
!!linebreak:original
=-
1f
1g
1a
1g
=-
!LO:TX:Y=-36:t=P
1a
2g
2f
1e
1d
=-
!LO:TX:Y=-36:t=P
1f
1g
1a
1g
=-
!LO:TX:Y=-38:t=P
1a
2b
2cc
2dd
2b
2cc
2dd
=-
0cc
0dd
0dd
=-=
*-
!!title: @{OTL}, @{GTL}, ed. @{ENC}
!!!pag:
!!!GTL: Hymnbook C
!!!EFL: 
!!!YEM: Creative Commons CC/BY/NC/SA 4.0
!!!ENC: Marcin Konik
!!!END: 2015-0m-dd
!!!EED: Marcin Konik
!!!EEV: 
!!!ONB: Encoded in vim by Marcin Konik
!!!CharacterEncoding: utf-8
!!!RDF**kern: l=long note in original notation
!!!RDF**kern: i=editorial accidental
!!muse2ps: z14jc180F
!!!COM: Anonim
!!!CDT: [?]
!!!TXO: Polish
!!!ODT: 
!!!GTL: Hymnbook C
!!!ARL: Opactwo św. Wojciecha, Staniątki 
!!!voices:	1
